T: Tripping On The Mountain
M: 2/4
L: 1/8
K: Dmaj
dD FA | dD Dd/c/ | dD FA | eE Ed/c/ |dD FA | Bg fe | d/c/B/A/ B/c/d/e/ | fd d :|af ge | fd df/g/ | af g/f/g/a/ | be ef/g/ |a>f ge | f>d ec | d/c/B/A/ B/c/d/e/ | fd d :|
